X: 166
T: Magnificat Secundi toni
N: Derived from Rue2009-Magnificat_Secundi_toni.krn
C: Pierre de la Rue
%%abc-version 2.0
%%abcx-abcm2ps-target-version 5.9.1 (29 Sep 2008)
%%abc-creator hum2abc beta
%%abcx-conversion-date 2019/02/17 08:01:16
%%abc-edited-by Jesse Rodin
%%abc-edited-by 01-04-2013
%%abcx-initial-encoding-date 2013/07/24/
%%humdrum-veritas 3172583542
%%humdrum-veritas-data 4151542511
%%linebreak <none>
%%barnumbers 0
L: 1/4
M: 2/1
Q: 1/2=120
%%staves [1 2 3 4]
V: 1 clef=treble
V: 2 clef=treble
V: 3 clef=treble-8
V: 4 clef=bass
K: C
[V:1] z8 | 
[V:2] z8 | 
[V:3] c4c2d2- | 
[V:4] C4A,2_B,2- | 
[V:1] z8 | 
[V:2] z8 | 
[V:3] d2c_Bc2d2- | 
[V:4] B,2A,G,A,2_B,2 | 
[V:1] z4c4 | 
[V:2] z4c4 | 
[V:3] d2e2f4 | 
[V:4] G,4F,4 | 
[V:1] c2d4c_B | 
[V:2] A2_B4AG | 
[V:3] z8 | 
[V:4] z8 | 
[V:1] c2d4e2 | 
[V:2] A2_B2G4 | 
[V:3] z8 | 
[V:4] z8 | 
[V:1] f8 | 
[V:2] F2EDC4 | 
[V:3] z4f4 | 
[V:4] z4F,4 | 
[V:1] z8 | 
[V:2] z4c4 | 
[V:3] f4e4 | 
[V:4] F,4C4 | 
[V:1] z4f4 | 
[V:2] c4B4 | 
[V:3] f8 | 
[V:4] D8 | 
[V:1] f4e4 | 
[V:2] c8 | 
[V:3] g8 | 
[V:4] C8 | 
[V:1] f8 | 
[V:2] A3_Bc2d2 | 
[V:3] f8 | 
[V:4] F,3G,A,2_B,2 | 
[V:1] g8 | 
[V:2] _B2G4FE | 
[V:3] z8 | 
[V:4] G,3A,_B,2C2 | 
[V:1] f3ed2c2- | 
[V:2] D2A2_B2c2 | 
[V:3] z4f4 | 
[V:4] D3C_B,2A,2- | 
[V:1] c2_BAG2AG | 
[V:2] A4z4 | 
[V:3] f4e4 | 
[V:4] A,2G,F,C4 | 
[V:1] A6GF | 
[V:2] c6_BA | 
[V:3] f8 | 
[V:4] F,8 | 
[V:1] E8 | 
[V:2] _B4c4- | 
[V:3] g8 | 
[V:4] z4C4 | 
[V:1] z2e2e4 | 
[V:2] c4C4 | 
[V:3] g4g4 | 
[V:4] C4C4 | 
[V:1] e4e4 | 
[V:2] C3DECE2- | 
[V:3] a4a2g2- | 
[V:4] A,6C2- | 
[V:1] f4g4 | 
[V:2] E2DC_B,4 | 
[V:3] g2f4e2 | 
[V:4] C2_B,A,G,4 | 
[V:1] c3_B/c/d2c2 | 
[V:2] C2c2A2c2- | 
[V:3] f8 | 
[V:4] F,8 | 
[V:1] f2f4e2 | 
[V:2] c2_BAG4 | 
[V:3] z8 | 
[V:4] z4C4 | 
[V:1] f4z2f2 | 
[V:2] F8 | 
[V:3] z4f4 | 
[V:4] D4D4- | 
[V:1] f3ed2c2 | 
[V:2] z8 | 
[V:3] f4f4 | 
[V:4] D2C2_B,2A,2 | 
[V:1] _B2A2e4 | 
[V:2] z2D4C2 | 
[V:3] z2f2g4 | 
[V:4] G,2F,2E,4 | 
[V:1] f4g3f | 
[V:2] F4E4 | 
[V:3] a4g4 | 
[V:4] D,4z4 | 
[V:1] edf4ed | 
[V:2] z4C4- | 
[V:3] a6gf | 
[V:4] A,4A,4 | 
[V:1] c3de2A2- | 
[V:2] C4C4 | 
[V:3] e4z2f2- | 
[V:4] A,3_B,C2F,2- | 
[V:1] A_Bc2F2c2- | 
[V:2] C3_B,/C/D2E2 | 
[V:3] f2e2f2e2 | 
[V:4] F,G,A,2D,2A,2- | 
[V:1] cde2f2e2- | 
[V:2] C2c3_BA2- | 
[V:3] f2e2c3_B | 
[V:4] A,_B,C2F,3G, | 
[V:1] e2d2^cBc2 | 
[V:2] A2G2A4 | 
[V:3] c2d2e4 | 
[V:4] A,2_B,2A,4 | 
[V:1] d2f2f2e2 | 
[V:2] z4A4 | 
[V:3] z2d2d2c2 | 
[V:4] D,4z4 | 
[V:1] d2f4ed | 
[V:2] A4A2c2- | 
[V:3] d2A2d2e2 | 
[V:4] z2D,2D,2A,2- | 
[V:1] c2d4^c2 | 
[V:2] c2_BAB2c2 | 
[V:3] f4e4 | 
[V:4] A,2G,F,G,2A,2 | 
[V:1] d8- | 
[V:2] F3GA2_B2 | 
[V:3] d8- | 
[V:4] D,8- | 
[V:1] d8 ||  
[V:2] A8 ||  
[V:3] d8 ||  
[V:4] D,8 ||  
[V:1]  [K:C] [K:clef=treble][M:2/1]z4c4 | 
[V:2]  [K:C] [K:clef=treble][M:2/1]c6_BA | 
[V:3]  [K:C] [K:clef=treble-8][M:2/1]z8 | 
[V:4]  [K:C] [K:clef=bass][M:2/1]z8 | 
[V:1] d2e4dc | 
[V:2] _B2c4BA | 
[V:3] z8 | 
[V:4] z8 | 
[V:1] d2e2A3_B | 
[V:2] G4F2c2 | 
[V:3] z8 | 
[V:4] z8 | 
[V:1] cde4dc | 
[V:2] A2c4_BA | 
[V:3] z8 | 
[V:4] z8 | 
[V:1] dcf4e2 | 
[V:2] _BAGFG4 | 
[V:3] z4c4 | 
[V:4] z8 | 
[V:1] f8 | 
[V:2] F8 | 
[V:3] d2c4f2- | 
[V:4] F,4F,4 | 
[V:1] z8 | 
[V:2] z8 | 
[V:3] fee2f3e | 
[V:4] G,4F,2_B,2 | 
[V:1] z8 | 
[V:2] z8 | 
[V:3] d2c2z2f2 | 
[V:4] _B,2A,2B,A,G,F, | 
[V:1] z8 | 
[V:2] z8 | 
[V:3] f2e2f2ed | 
[V:4] G,4F,3G, | 
[V:1] z8 | 
[V:2] z8 | 
[V:3] cdefgfed | 
[V:4] A,_B,C2B,A,G,F, | 
[V:1] z4e4 | 
[V:2] z4G4 | 
[V:3] e2d4^c2 | 
[V:4] G,F,E,D,E,4 | 
[V:1] f4f4 | 
[V:2] F4A4 | 
[V:3] d8 | 
[V:4] D,8 | 
[V:1] g6fe | 
[V:2] G3A_Bcd2- | 
[V:3] z8 | 
[V:4] z8 | 
[V:1] fedcd4 | 
[V:2] d2c4B2 | 
[V:3] z8 | 
[V:4] z8 | 
[V:1] c2_BAG4 | 
[V:2] c6_BA | 
[V:3] z4e4 | 
[V:4] z4C4 | 
[V:1] F4z4 | 
[V:2] A8 | 
[V:3] f8 | 
[V:4] D2D2DC_B,A, | 
[V:1] z8 | 
[V:2] z8 | 
[V:3] f8 | 
[V:4] _B,2A,G,A,4 | 
[V:1] z8 | 
[V:2] z8 | 
[V:3] g6fe | 
[V:4] G,3A,_B,CD2- | 
[V:1] z4f4 | 
[V:2] z8 | 
[V:3] fedcd4 | 
[V:4] D2C4B,2 | 
[V:1] e3dc_BA2- | 
[V:2] c3_BAGF2- | 
[V:3] c4z4 | 
[V:4] C6D2- | 
[V:1] A2c4_BA | 
[V:2] F2A4GF | 
[V:3] z8 | 
[V:4] D2C_B,A,2B,2 | 
[V:1] G2A4G2 | 
[V:2] E2F2ECG2- | 
[V:3] z8 | 
[V:4] C2F,2G,2E,2 | 
[V:1] A2F2G4 | 
[V:2] G2F4E2 | 
[V:3] z8 | 
[V:4] F,4C4 | 
[V:1] F2f2ecg2- | 
[V:2] F4C4 | 
[V:3] z2a4g2 | 
[V:4] F,4z4 | 
[V:1] g2f3ee2 | 
[V:2] z4c4 | 
[V:3] a2f2g4 | 
[V:4] z4C4 | 
[V:1] f8 | 
[V:2] A4d4- | 
[V:3] f4f4 | 
[V:4] D6C2 | 
[V:1] z8 | 
[V:2] d2c2_B2A2 | 
[V:3] g6f2 | 
[V:4] _B,2A,2G,4 | 
[V:1] z8 | 
[V:2] G4c4- | 
[V:3] e2d2c4- | 
[V:4] C6_B,2 | 
[V:1] z8 | 
[V:2] c2_B2A2G2 | 
[V:3] c4f4- | 
[V:4] A,2G,2F,2E,2 | 
[V:1] z8 | 
[V:2] F2A2_B3A | 
[V:3] f2e2d2c2 | 
[V:4] D,4G,4- | 
[V:1] z8 | 
[V:2] GFA4G2 | 
[V:3] _B2A2d4 | 
[V:4] G,2F,2_B,4 | 
[V:1] z8 | 
[V:2] A8 | 
[V:3] c4f3e | 
[V:4] A,4F,2A,2 | 
[V:1] z8 | 
[V:2] z8 | 
[V:3] edd4^c2 | 
[V:4] G,F,E,D,E,4 | 
[V:1] z4f4 | 
[V:2] A4A4 | 
[V:3] d8 | 
[V:4] D,8 | 
[V:1] g6f2 | 
[V:2] G2_B4A2 | 
[V:3] z8 | 
[V:4] z8 | 
[V:1] e2d2c4- | 
[V:2] G2F2E2A2- | 
[V:3] z8 | 
[V:4] z8 | 
[V:1] c4f4- | 
[V:2] A2G2F2E2 | 
[V:3] z8 | 
[V:4] C4D4- | 
[V:1] f2e2d2c2 | 
[V:2] D8 | 
[V:3] z8 | 
[V:4] D2C2_B,2A,2 | 
[V:1] _B2A2d4 | 
[V:2] D4D4 | 
[V:3] z4g4 | 
[V:4] G,2F,2_B,4 | 
[V:1] c4f3e | 
[V:2] E2A2A2_B2 | 
[V:3] a2a2f2g2- | 
[V:4] A,4D3C | 
[V:1] edd4^c2 | 
[V:2] c_BAGA4 | 
[V:3] gfede4 | 
[V:4] C2D2A,4 | 
[V:1] d8 ||  
[V:2] A8 ||  
[V:3] d8 ||  
[V:4] D,8 ||  
[V:1]  [K:C] [K:clef=treble][M:2/1]c4c4 | 
[V:2]  [K:C] [K:clef=treble][M:2/1]z8 | 
[V:3]  [K:C] [K:clef=treble-8][M:2/1]c6_BA | 
[V:4]  [K:C] [K:clef=bass][M:2/1]z8 | 
[V:1] d4c4 | 
[V:2] F4F4- | 
[V:3] _B3AF2f2- | 
[V:4] z8 | 
[V:1] f3ee2d2- | 
[V:2] F4G4 | 
[V:3] fed2c2G2 | 
[V:4] z8 | 
[V:1] d2c_BA4 | 
[V:2] F4F4 | 
[V:3] _B2c2d4 | 
[V:4] z8 | 
[V:1] G4z4 | 
[V:2] _B3AA2G2- | 
[V:3] GA_Bcdc_BA | 
[V:4] z8 | 
[V:1] d4d4 | 
[V:2] G2FED4 | 
[V:3] _BGc4=B2 | 
[V:4] z8 | 
[V:1] e4c3d | 
[V:2] C4z4 | 
[V:3] c4z2c2 | 
[V:4] z8 | 
[V:1] efg4fe | 
[V:2] G4G4 | 
[V:3] G3A_B2c2- | 
[V:4] z8 | 
[V:1] d4c4 | 
[V:2] G4A4 | 
[V:3] c2B2c4 | 
[V:4] z8 | 
[V:1] z2c2c3d | 
[V:2] F3GA_Bc2- | 
[V:3] d2f4ed | 
[V:4] z8 | 
[V:1] e2f4e2 | 
[V:2] c2_BAG4 | 
[V:3] c2F2c4 | 
[V:4] z8 | 
[V:1] d2f3ed2 | 
[V:2] F2F2F3G | 
[V:3] d3dd2c_B | 
[V:4] z8 | 
[V:1] c2d4c2 | 
[V:2] A2_B4A2 | 
[V:3] A2G2z4 | 
[V:4] z8 | 
[V:1] _B2d4cB | 
[V:2] G2_B4AG | 
[V:3] z2G3A_Bc | 
[V:4] z8 | 
[V:1] AGA_Bc2B2- | 
[V:2] FEFGA2G2- | 
[V:3] d4c2G2 | 
[V:4] z8 | 
[V:1] BAGFG4 | 
[V:2] G2F4E2 | 
[V:3] _B2d2c4 | 
[V:4] z4C4 | 
[V:1] F4z4 | 
[V:2] F8 | 
[V:3] z8 | 
[V:4] D3DD2_B,2- | 
[V:1] z8 | 
[V:2] z4F4 | 
[V:3] z8 | 
[V:4] B,2A,G,A,4 | 
[V:1] z8 | 
[V:2] G3GG2E2- | 
[V:3] z8 | 
[V:4] G,4z2G,2 | 
[V:1] z8 | 
[V:2] E2DCD4 | 
[V:3] z8 | 
[V:4] A,2C3B,B,2 | 
[V:1] z8 | 
[V:2] C2G2G2A2- | 
[V:3] z8 | 
[V:4] C3DE2F2- | 
[V:1] z4f4 | 
[V:2] AGc4B2 | 
[V:3] f8 | 
[V:4] FEDCD4 | 
[V:1] e4f4 | 
[V:2] c8- | 
[V:3] g4f2F2 | 
[V:4] C4F4 | 
[V:1] c4f4 | 
[V:2] c8 | 
[V:3] c4A2F2 | 
[V:4] E4F4 | 
[V:1] e2c2dc_BA | 
[V:2] z8 | 
[V:3] c4_B4 | 
[V:4] C4F4 | 
[V:1] G2A2_BAGF | 
[V:2] z8 | 
[V:3] c2A2G4 | 
[V:4] E2C2DC_B,A, | 
[V:1] EDE2F2A2 | 
[V:2] z4F4 | 
[V:3] z2g2a2f2 | 
[V:4] G,4F,4 | 
[V:1] G4F4 | 
[V:2] E4F4 | 
[V:3] g4a2f2 | 
[V:4] z4z2F2 | 
[V:1] z2e2f2d2 | 
[V:2] C4F4 | 
[V:3] g4f4 | 
[V:4] E2C2D2_B,2 | 
[V:1] c2e2d2g2- | 
[V:2] E2C2D2E2 | 
[V:3] z2a2f2g2 | 
[V:4] C2A,2_B,2G,2 | 
[V:1] g2f3ee2 | 
[V:2] F4G4 | 
[V:3] c2d2c4 | 
[V:4] A,2F,2C4 | 
[V:1] f4z2f2 | 
[V:2] F4z2A2 | 
[V:3] z4z2f2 | 
[V:4] F,8 | 
[V:1] f2e2f2ed | 
[V:2] A2G2A2GF | 
[V:3] f2c2F2G2 | 
[V:4] z8 | 
[V:1] c4z4 | 
[V:2] E2A2A2G2 | 
[V:3] A2F2c4 | 
[V:4] z2F2F2E2 | 
[V:1] z8 | 
[V:2] A2GFEDE2 | 
[V:3] F4z4 | 
[V:4] F2EDC_B,C2 | 
[V:1] z2A3_Bcd | 
[V:2] D4z4 | 
[V:3] f4d2a2 | 
[V:4] D2F2F2F2 | 
[V:1] e2f2g3e | 
[V:2] z8 | 
[V:3] g2f2e4 | 
[V:4] E2D2C_B,C2 | 
[V:1] f2f2f2f2 | 
[V:2] z2D3EFG | 
[V:3] defga2d2 | 
[V:4] D4D,4 | 
[V:1] e2d2c2f2- | 
[V:2] A2_B2c3A | 
[V:3] c2_B2A2f2 | 
[V:4] z4z2D2 | 
[V:1] fdf2ecd2 | 
[V:2] _B2A4G2 | 
[V:3] f2d2e2d2 | 
[V:4] D2D2C2_B,2 | 
[V:1] c2f2ecd2- | 
[V:2] A2A2A2G2 | 
[V:3] e2f2c2g2 | 
[V:4] A,2D2CA,_B,2 | 
[V:1] d2^cBc4 | 
[V:2] A2GFEDE2 | 
[V:3] f2ede4 | 
[V:4] A,4A,4 | 
[V:1] d8- | 
[V:2] F2D2F3G | 
[V:3] d8- | 
[V:4] D,8- | 
[V:1] d8 ||  
[V:2] A8 ||  
[V:3] d8 ||  
[V:4] D,8 ||  
[V:1]  [K:C] [K:clef=treble][M:2/1]z8 | 
[V:2]  [K:C] [K:clef=treble][M:2/1]z8 | 
[V:3]  [K:C] [K:clef=treble-8][M:2/1]z8 | 
[V:4]  [K:C] [K:clef=bass][M:2/1]C4D2C2- | 
[V:1] z8 | 
[V:2] z8 | 
[V:3] c4d2c2- | 
[V:4] C_B,A,G,F,3G, | 
[V:1] z8 | 
[V:2] z8 | 
[V:3] cdefgag2- | 
[V:4] A,_B,CDC2B,A, | 
[V:1] z8 | 
[V:2] z8 | 
[V:3] gff4e2 | 
[V:4] _B,A,G,F,G,4 | 
[V:1] z8 | 
[V:2] z8 | 
[V:3] f8 | 
[V:4] F,4_B,4 | 
[V:1] z8 | 
[V:2] z8 | 
[V:3] z4f4 | 
[V:4] _B,4A,4 | 
[V:1] z8 | 
[V:2] z8 | 
[V:3] f4e4 | 
[V:4] _B,4C4 | 
[V:1] z8 | 
[V:2] z8 | 
[V:3] f4g4 | 
[V:4] D4_B,2C2- | 
[V:1] z8 | 
[V:2] z8 | 
[V:3] a4f2g2- | 
[V:4] C_B,A,G,A,2B,2- | 
[V:1] z8 | 
[V:2] z8 | 
[V:3] gfede2f2- | 
[V:4] B,A,G,F,G,2A,2- | 
[V:1] z8 | 
[V:2] z8 | 
[V:3] fedcd2e2- | 
[V:4] A,G,F,E,F,2G,2 | 
[V:1] z8 | 
[V:2] z8 | 
[V:3] edc_Bc2d2 | 
[V:4] E,2F,G,A,F,_B,2 | 
[V:1] z8 | 
[V:2] z8 | 
[V:3] _B2c4_BA | 
[V:4] G,2A,3G,F,2- | 
[V:1] z8 | 
[V:2] z8 | 
[V:3] G4z2f2 | 
[V:4] F,2E,2F,2A,2 | 
[V:1] z8 | 
[V:2] z8 | 
[V:3] efgafeg2- | 
[V:4] G,A,_B,CA,2G,2 | 
[V:1] z8 | 
[V:2] z8 | 
[V:3] g2f4e2 | 
[V:4] E,2F,2G,4 | 
[V:1] z8 | 
[V:2] z8 | 
[V:3] f8- | 
[V:4] F,4z2_B,2- | 
[V:1] z8 | 
[V:2] z8 | 
[V:3] f8- | 
[V:4] B,A,_B,CD2CB, | 
[V:1] z8 | 
[V:2] z8 | 
[V:3] f8 | 
[V:4] A,2_B,3A,A,G, | 
[V:1] z8 | 
[V:2] z8 | 
[V:3] z2f3eed | 
[V:4] F,4z2F,2 | 
[V:1] z8 | 
[V:2] z8 | 
[V:3] c4z2f2 | 
[V:4] F,4G,2A,2- | 
[V:1] z8 | 
[V:2] z8 | 
[V:3] f4g2a2- | 
[V:4] A,2G,F,E,2F,2 | 
[V:1] z8 | 
[V:2] z8 | 
[V:3] a2gfede2 | 
[V:4] D,2D4^C2 | 
[V:1] z8 | 
[V:2] z8 | 
[V:3] d2a3gfe | 
[V:4] D4D3C | 
[V:1] z8 | 
[V:2] z8 | 
[V:3] f2g2e2f2 | 
[V:4] _B,A,B,2C2A,2 | 
[V:1] z8 | 
[V:2] z8 | 
[V:3] d2e3dc_B | 
[V:4] _B,2G,2A,3G, | 
[V:1] z8 | 
[V:2] z8 | 
[V:3] c2d2_B2c2 | 
[V:4] F,E,F,2G,2E,2 | 
[V:1] z8 | 
[V:2] z8 | 
[V:3] A2d4c2 | 
[V:4] F,2D,2E,4 | 
[V:1] z8 | 
[V:2] z8 | 
[V:3] d2f3edc | 
[V:4] D,2A,2_B,3A, | 
[V:1] z8 | 
[V:2] z8 | 
[V:3] _BAd4^c2 | 
[V:4] G,F,E,D,E,4 | 
[V:1] z8 ||  
[V:2] z8 ||  
[V:3] d8 ||  
[V:4] D,8 ||  
[V:1]  [K:C] [K:clef=treble][M:2/1]z8 | 
[V:2]  [K:C] [K:clef=treble-8][M:2/1]G8 | 
[V:3]  [K:C] [K:clef=treble-8][M:2/1]z8 | 
[V:4]  [K:C] [K:clef=bass][M:2/1]z8 | 
[V:1] c8 | 
[V:2] A3Gc4- | 
[V:3] z8 | 
[V:4] z8 | 
[V:1] d3cf4- | 
[V:2] c2BAB4 | 
[V:3] z8 | 
[V:4] z8 | 
[V:1] f2ede4 | 
[V:2] c8 | 
[V:3] c8 | 
[V:4] z8 | 
[V:1] f3ec2d2- | 
[V:2] z8 | 
[V:3] d3cf4- | 
[V:4] F,8 | 
[V:1] d2c2_B4 | 
[V:2] z8 | 
[V:3] f2ede4 | 
[V:4] G,4G,4 | 
[V:1] A8 | 
[V:2] z8 | 
[V:3] f4d2f2- | 
[V:4] F,6D,2 | 
[V:1] z4e4 | 
[V:2] z8 | 
[V:3] fed4^c2 | 
[V:4] F,2G,2E,4 | 
[V:1] f6e2 | 
[V:2] A6G2 | 
[V:3] d8 | 
[V:4] D,8 | 
[V:1] d4c2d2- | 
[V:2] F4E2F2- | 
[V:3] z8 | 
[V:4] z8 | 
[V:1] dcA2_B4 | 
[V:2] FEA4G2 | 
[V:3] z4e4 | 
[V:4] z8 | 
[V:1] A8 | 
[V:2] A8 | 
[V:3] f3efga2- | 
[V:4] z2F,2F,E,F,G, | 
[V:1] z8 | 
[V:2] z8 | 
[V:3] aga_bc'2_ba | 
[V:4] A,3G,A,_B,C2- | 
[V:1] z8 | 
[V:2] z8 | 
[V:3] g2e2f2a2 | 
[V:4] CDECD2F2- | 
[V:1] z8 | 
[V:2] z4z2D2 | 
[V:3] g4f4- | 
[V:4] F2E2F3F, | 
[V:1] z2A2c3d | 
[V:2] F3GA2_B2 | 
[V:3] f4z4 | 
[V:4] F,4z4 | 
[V:1] e2f2g3f | 
[V:2] c2A2_B2c2- | 
[V:3] z8 | 
[V:4] z8 | 
[V:1] ede3dc_B | 
[V:2] c_BAGA3G | 
[V:3] z8 | 
[V:4] z8 | 
[V:1] c2d3cf2- | 
[V:2] FEF4A2 | 
[V:3] z8 | 
[V:4] z8 | 
[V:1] f2e2f2f2 | 
[V:2] G4F2c2 | 
[V:3] z4z2a2 | 
[V:4] z4z2F,2 | 
[V:1] f2f2f4 | 
[V:2] c2c2c4- | 
[V:3] a2a2a4 | 
[V:4] F,2F,2F,4 | 
[V:1] z8 | 
[V:2] c4z4 | 
[V:3] z2f4f2 | 
[V:4] z2A,4A,2 | 
[V:1] z4z2f2- | 
[V:2] z4z2A2- | 
[V:3] e3dc2d2 | 
[V:4] G,3F,E,2D,2 | 
[V:1] f2f2e3d | 
[V:2] A2A2G3F | 
[V:3] z8 | 
[V:4] z8 | 
[V:1] c2d2z4 | 
[V:2] E2D2z4 | 
[V:3] z4A3_B | 
[V:4] z2D,3E,F,G, | 
[V:1] z8 | 
[V:2] z8 | 
[V:3] cdefgfed | 
[V:4] A,_B,CA,B,2C2- | 
[V:1] z8 | 
[V:2] z8 | 
[V:3] c2f4e2 | 
[V:4] C2_B,A,G,4 | 
[V:1] z8 | 
[V:2] z8 | 
[V:3] f2f4f2 | 
[V:4] F,2A,4A,2 | 
[V:1] z4z2f2- | 
[V:2] z4z2A2- | 
[V:3] e3dc2d2 | 
[V:4] G,3F,E,2D,2 | 
[V:1] f2f2e3d | 
[V:2] A2A2G3F | 
[V:3] z8 | 
[V:4] z8 | 
[V:1] c2d2A_Bcd | 
[V:2] E2D2A4 | 
[V:3] z2f4f2 | 
[V:4] z2D,E,F,G,A,_B, | 
[V:1] efgef2e2- | 
[V:2] G4F2A2- | 
[V:3] e4d2c2 | 
[V:4] CDECD2A,2 | 
[V:1] edd4^c2 | 
[V:2] A2G2A4- | 
[V:3] d4e4 | 
[V:4] _B,4A,4 | 
[V:1] d8 ||  
[V:2] A8 ||  
[V:3] d8 ||  
[V:4] D,8 ||  
[V:1]  [K:C] [K:clef=treble][M:2/1]z4c4 | 
[V:2]  [K:C] [K:clef=treble][M:2/1]z8 | 
[V:3]  [K:C] [K:clef=treble-8][M:2/1]z8 | 
[V:4]  [K:C] [K:clef=bass][M:2/1]C8 | 
[V:1] _B4c3B | 
[V:2] z8 | 
[V:3] z8 | 
[V:4] D4C4 | 
[V:1] AGF3GAG/A/ | 
[V:2] z8 | 
[V:3] z8 | 
[V:4] F3ED2C2 | 
[V:1] _BAGFG4 | 
[V:2] z8 | 
[V:3] z4c4 | 
[V:4] DCF4E2 | 
[V:1] F8 | 
[V:2] z4c4 | 
[V:3] d4c4 | 
[V:4] F4F,4 | 
[V:1] z8 | 
[V:2] _B4c3B | 
[V:3] d4c4 | 
[V:4] z8 | 
[V:1] z8 | 
[V:2] AGF3GAG/A/ | 
[V:3] f3ed2c2 | 
[V:4] z8 | 
[V:1] z8 | 
[V:2] _BAGFG4 | 
[V:3] dcf4e2 | 
[V:4] z4C4 | 
[V:1] z4c4 | 
[V:2] z2F2G2A2- | 
[V:3] f4z4 | 
[V:4] D4C2F2- | 
[V:1] d4c4 | 
[V:2] A2GFA4 | 
[V:3] z8 | 
[V:4] F2EDF2F,2 | 
[V:1] f6ed | 
[V:2] A4A4 | 
[V:3] z8 | 
[V:4] F,8 | 
[V:1] f2edc4 | 
[V:2] z2c4_BA | 
[V:3] z8 | 
[V:4] z2F2F2F2- | 
[V:1] z2f2f2f2- | 
[V:2] c2F2c4 | 
[V:3] z4f4 | 
[V:4] F2EDF2F,2 | 
[V:1] f2e2f2ed | 
[V:2] c4A4 | 
[V:3] g4f4 | 
[V:4] C4F,4 | 
[V:1] c2d4c2- | 
[V:2] z8 | 
[V:3] a8- | 
[V:4] F6F2 | 
[V:1] c_BAGF2f2- | 
[V:2] c6c2 | 
[V:3] a8 | 
[V:4] F4F4 | 
[V:1] f2f2f4 | 
[V:2] c4c4 | 
[V:3] a4a4 | 
[V:4] F,4F,G,A,_B, | 
[V:1] e6dc | 
[V:2] c6_BA | 
[V:3] g6fe | 
[V:4] C8 | 
[V:1] d8 | 
[V:2] _B8 | 
[V:3] g2fed2g2- | 
[V:4] G,8 | 
[V:1] z4d4 | 
[V:2] z4_B4 | 
[V:3] g2fef4 | 
[V:4] z4D4 | 
[V:1] e2g3fed | 
[V:2] c6_BA | 
[V:3] g4e2g2- | 
[V:4] C4C4 | 
[V:1] c3de2f2 | 
[V:2] G4c4 | 
[V:3] gfedc2f2- | 
[V:4] C6_B,A, | 
[V:1] g3fd2c2- | 
[V:2] _B4A4 | 
[V:3] f2e2f4 | 
[V:4] G,4F,4- | 
[V:1] c2f3ee2 | 
[V:2] c8- | 
[V:3] a4g4 | 
[V:4] F,4C4 | 
[V:1] f8 | 
[V:2] c8 | 
[V:3] f8 | 
[V:4] F,4z2F2- | 
[V:1] z8 | 
[V:2] z8 | 
[V:3] z2a4a2 | 
[V:4] F2F2F4 | 
[V:1] z8 | 
[V:2] z8 | 
[V:3] a8 | 
[V:4] z2F2F2F2 | 
[V:1] z8 | 
[V:2] z8 | 
[V:3] z2a2a2a2 | 
[V:4] E2C2D2F2 | 
[V:1] z8 | 
[V:2] z8 | 
[V:3] g2e2f2a2 | 
[V:4] EDC_B,A,2F,2 | 
[V:1] z8 | 
[V:2] z8 | 
[V:3] gfedc_Bcd | 
[V:4] G,2A,4G,F, | 
[V:1] z8 | 
[V:2] z8 | 
[V:3] e2d4^c2 | 
[V:4] G,F,E,D,E,4 | 
[V:1] z2f2f2f2 | 
[V:2] A4A2A2 | 
[V:3] d8 | 
[V:4] D,8 | 
[V:1] e2c2d2f2 | 
[V:2] G2E2F3E | 
[V:3] z4z2d2 | 
[V:4] z8 | 
[V:1] e2g3fed | 
[V:2] C2E3DC_B, | 
[V:3] g2g2g2g2 | 
[V:4] z8 | 
[V:1] c2d2A_Bcd | 
[V:2] A,2A2c2c2 | 
[V:3] a2a4gf | 
[V:4] z2F2F2F2 | 
[V:1] efgef2ed | 
[V:2] c2c2F2F2 | 
[V:3] g2e2d2a2- | 
[V:4] E2C2D2D,2 | 
[V:1] c2d4^c2 | 
[V:2] A6A2 | 
[V:3] a2gfe4 | 
[V:4] F,3G,A,4 | 
[V:1] d8 ||  
[V:2] A8 ||  
[V:3] d8 ||  
[V:4] D,8 ||  
[V:1]  [K:C] [K:clef=treble][M:2/1]c6de | 
[V:2]  [K:C] [K:clef=treble][M:2/1]z4c4- | 
[V:3]  [K:C] [K:clef=treble-8][M:2/1]c8 | 
[V:4]  [K:C] [K:clef=bass][M:2/1]z8 | 
[V:1] f4f4 | 
[V:2] c2BAB4 | 
[V:3] d8 | 
[V:4] z8 | 
[V:1] e4e2c2- | 
[V:2] c4c2A2- | 
[V:3] c8- | 
[V:4] z8 | 
[V:1] c2_BAG2AG | 
[V:2] A2GFE2FE | 
[V:3] c8 | 
[V:4] z8 | 
[V:1] A8 | 
[V:2] F3EC2c2- | 
[V:3] f8- | 
[V:4] F,6F,2 | 
[V:1] z4A4- | 
[V:2] c2c2c2c2 | 
[V:3] f8 | 
[V:4] F,4F,4 | 
[V:1] A2A2A2A2 | 
[V:2] c8- | 
[V:3] z4f4- | 
[V:4] F,8 | 
[V:1] A8 | 
[V:2] c8 | 
[V:3] f2f2f2f2 | 
[V:4] z2F,3G,A,2 | 
[V:1] z2A3_Bc2 | 
[V:2] z8 | 
[V:3] f8 | 
[V:4] D,2F,3G,A,2 | 
[V:1] F2A3_Bcd | 
[V:2] z8 | 
[V:3] f8 | 
[V:4] D,2F,3G,A,_B, | 
[V:1] e2f2g4 | 
[V:2] c8 | 
[V:3] e8 | 
[V:4] C8 | 
[V:1] f2f4ed | 
[V:2] A4B4 | 
[V:3] f8 | 
[V:4] D4D4 | 
[V:1] e8 | 
[V:2] c8 | 
[V:3] g6a2- | 
[V:4] C8- | 
[V:1] z4e4 | 
[V:2] c4c4 | 
[V:3] a2gfg4 | 
[V:4] C8 | 
[V:1] f3ed2c2- | 
[V:2] A2c3_BA2- | 
[V:3] f8- | 
[V:4] F,8 | 
[V:1] c2_BAG4 | 
[V:2] AGF4E2 | 
[V:3] f4g4 | 
[V:4] z4C4 | 
[V:1] F4E2F2- | 
[V:2] F8 | 
[V:3] a8- | 
[V:4] F,3G,A,2F,2 | 
[V:1] FGA_Bc2F2 | 
[V:2] z8 | 
[V:3] a8 | 
[V:4] F3EC2D2 | 
[V:1] z2f2e2f2 | 
[V:2] z4A4 | 
[V:3] a4a4 | 
[V:4] A,2D2C2D2 | 
[V:1] g2fed2g2- | 
[V:2] _B2B4B2 | 
[V:3] g8 | 
[V:4] G,8 | 
[V:1] g2f2e2g2- | 
[V:2] G2A2_B4- | 
[V:3] e2f2g4 | 
[V:4] z4z2E2- | 
[V:1] g2f2e2g2- | 
[V:2] B4c4- | 
[V:3] e2f2g4 | 
[V:4] E2D2C2E2- | 
[V:1] g2fed2g2- | 
[V:2] c2d4c_B | 
[V:3] g2a4gf | 
[V:4] E2DCD2E2 | 
[V:1] g2f4e2 | 
[V:2] A3_Bc4 | 
[V:3] a4g4 | 
[V:4] F4C4 | 
[V:1] f8 | 
[V:2] A4z2c2- | 
[V:3] f8 | 
[V:4] F,8 | 
[V:1] z8 | 
[V:2] c2_B2A2G2 | 
[V:3] z8 | 
[V:4] z2F4E2 | 
[V:1] z8 | 
[V:2] F2E2D2A2 | 
[V:3] z8 | 
[V:4] D2C2_B,2A,2 | 
[V:1] z8 | 
[V:2] _B3AGFE2- | 
[V:3] z8 | 
[V:4] G,2D2E3D | 
[V:1] z8 | 
[V:2] E2A3GFE | 
[V:3] z8 | 
[V:4] C_B,A,4D2- | 
[V:1] z8 | 
[V:2] D2G3FED | 
[V:3] z8 | 
[V:4] DC_B,A,G,2A,2- | 
[V:1] z8 | 
[V:2] C2D4^C2 | 
[V:3] z8 | 
[V:4] A,2G,F,E,4 | 
[V:1] z8 | 
[V:2] D8 | 
[V:3] z2a4g2 | 
[V:4] D,8- | 
[V:1] z2f4e2 | 
[V:2] z8 | 
[V:3] f3ed2a2 | 
[V:4] D,8 | 
[V:1] d2c2_B2A2 | 
[V:2] z8 | 
[V:3] _b3ag2f2 | 
[V:4] z8 | 
[V:1] G2d2e3d | 
[V:2] z8 | 
[V:3] e2d2c2g2 | 
[V:4] z8 | 
[V:1] c_BA4d2- | 
[V:2] z8 | 
[V:3] a3gfed2- | 
[V:4] z8 | 
[V:1] dc_BAG2g2- | 
[V:2] z8 | 
[V:3] d2g3fed | 
[V:4] z8 | 
[V:1] gfedc2d2- | 
[V:2] z8 | 
[V:3] c2a4gf | 
[V:4] z8 | 
[V:1] d2^c2d2f2- | 
[V:2] z4z2A2- | 
[V:3] e4d4 | 
[V:4] z4z2D2- | 
[V:1] f2f2f2f2 | 
[V:2] A2A2A2A2 | 
[V:3] z2a4a2 | 
[V:4] D2D2D2D2 | 
[V:1] e2g3fde | 
[V:2] c4_B2d2- | 
[V:3] a2e2g3f | 
[V:4] C3_B,G,A,B,2- | 
[V:1] f3ecde2- | 
[V:2] dcA_Bc2c2- | 
[V:3] def3ecd | 
[V:4] B,A,F,G,A,3_B, | 
[V:1] e2d4^c2 | 
[V:2] c_BAGA4 | 
[V:3] e2f2e4 | 
[V:4] C2D2A,4 | 
[V:1] d8 |]  
[V:2] _B4A4 |]  
[V:3] d8 |]  
[V:4] D,8 |]  



